Newaita-dark/actions/16/feed-subscribe.svg

<svg height="16" viewBox="0 0 16 16" width="16" xmlns="http://www.w3.org/2000/svg"><g fill="#e0e0e0"><path d="m3.636719 10.046875c1.28125 0 2.316406 1.039063 2.316406 2.316406 0 1.277344-1.035156 2.316407-2.316406 2.316407-1.277344 0-2.3125-1.039063-2.3125-2.316407 0-1.277343 1.035156-2.316406 2.3125-2.316406zm0 0"/><path d="m1.324219 1.449219v1.984375c6.230469 0 11.246093 5.015625 11.246093 11.246094h1.984376c0-7.332032-5.902344-13.230469-13.230469-13.230469zm0 0"/><path d="m1.324219 5.417969v1.984375c4.03125 0 7.277343 3.246094 7.277343 7.277344h1.984376c0-5.132813-4.132813-9.261719-9.261719-9.261719zm0 0"/></g></svg>

<svg xmlns="http://www.w3.org/2000/svg" xmlns:xlink="http://www.w3.org/1999/xlink" width="16px" height="16px" viewBox="0 0 16 16" version="1.1">
<g id="surface1">
     <defs>
  <style id="current-color-scheme" type="text/css">
   .ColorScheme-Text { color:#eeeeee; } .ColorScheme-Highlight { color:#424242; }
  </style>
 </defs>
<path style="fill:currentColor" class="ColorScheme-Text" d="M 3.636719 10.046875 C 4.917969 10.046875 5.953125 11.085938 5.953125 12.363281 C 5.953125 13.640625 4.917969 14.679688 3.636719 14.679688 C 2.359375 14.679688 1.324219 13.640625 1.324219 12.363281 C 1.324219 11.085938 2.359375 10.046875 3.636719 10.046875 Z M 3.636719 10.046875 "/>
     <defs>
  <style id="current-color-scheme" type="text/css">
   .ColorScheme-Text { color:#eeeeee; } .ColorScheme-Highlight { color:#424242; }
  </style>
 </defs>
<path style="fill:currentColor" class="ColorScheme-Text" d="M 1.324219 1.449219 L 1.324219 3.433594 C 7.554688 3.433594 12.570312 8.449219 12.570312 14.679688 L 14.554688 14.679688 C 14.554688 7.347656 8.652344 1.449219 1.324219 1.449219 Z M 1.324219 1.449219 "/>
     <defs>
  <style id="current-color-scheme" type="text/css">
   .ColorScheme-Text { color:#eeeeee; } .ColorScheme-Highlight { color:#424242; }
  </style>
 </defs>
<path style="fill:currentColor" class="ColorScheme-Text" d="M 1.324219 5.417969 L 1.324219 7.402344 C 5.355469 7.402344 8.601562 10.648438 8.601562 14.679688 L 10.585938 14.679688 C 10.585938 9.546875 6.453125 5.417969 1.324219 5.417969 Z M 1.324219 5.417969 "/>
</g>
</svg>
